source/assets/images/icons/car.svg

<svg fill="none" height="80" viewBox="0 0 80 80" width="80" xmlns="http://www.w3.org/2000/svg"><g fill="#000"><path d="m76.9402 32.0513-1.7436-1.8462-6.1197-16.4957c-1.0427-2.7863-3.7094-4.63249-6.6837-4.64959h-43.7094c-2.9744 0-5.6411 1.86329-6.6838 4.64959l-6.03419 16.2906-2.51282 2.3248c-2.18803 1.8632-3.45299 4.5983-3.45299 7.4701v24.0341c.017094 3.9317 3.21368 7.1112 7.1453 7.1112h4.5128c3.9316 0 7.1282-3.1795 7.1453-7.1112v-3.4871h42.3932v3.4871c.0171 3.9317 3.2137 7.1112 7.1453 7.1112h4.5128c3.9316 0 7.1282-3.1795 7.1453-7.1112v-24.6666c-.0171-2.6838-1.1111-5.2479-3.0598-7.1111zm-61.7265-17.1795c.547-1.453 1.9316-2.3932 3.4701-2.3932h43.7265c1.5384 0 2.923.9573 3.47 2.3932l5.3334 14.359h-3.9829c-.9402-6.4103-6.906-10.8377-13.3163-9.8804-5.1111.7521-9.1282 4.7692-9.8803 9.8804h-34.15386zm48.5299 14.359h-16.2564c.9401-4.4958 5.3504-7.3676 9.8461-6.4274 3.2137.6838 5.7265 3.1966 6.4103 6.4274zm-48.359 34.5982c-.0171 2.0513-1.6752 3.6924-3.7265 3.6924h-4.5128c-2.05128 0-3.7094-1.6411-3.7265-3.6924v-4.4786c1.02564.6667 2.37607.9915 3.7265.9915h8.2393zm61.1966 0c-.0171 2.0513-1.6752 3.6924-3.7265 3.6924h-4.5128c-2.0513 0-3.7094-1.6582-3.7265-3.6924v-3.4871h8.2393c1.3504 0 2.7009-.3248 3.7265-.9915zm-3.7265-6.9059h-65.7094c-2.03419.0171-3.7094-1.6069-3.7265-3.6582v-13.47c0-1.8804.83761-3.6753 2.27351-4.8889.01709-.0171.05128-.0513.06837-.0684l2.32479-2.188h64.73503l1.641 1.7606c.0171.0342.0684.0513.0855.0855 1.2821 1.2137 2.0171 2.906 2.0171 4.6667v14.1025h.0171c-.0171 2.0342-1.6923 3.6753-3.7265 3.6582z"/><path d="m22.5641 39.4872h-12.82052c-.94017 0-1.7094.7692-1.7094 1.7094v8.8889c0 .9401.76923 1.7094 1.7094 1.7094h12.82052c.9402 0 1.7094-.7693 1.7094-1.7094v-8.8889c0-.9402-.7692-1.7094-1.7094-1.7094zm-1.7094 8.8889h-9.4017v-5.4701h9.4017z"/><path d="m70.2565 39.4872h-12.8205c-.9402 0-1.7094.7692-1.7094 1.7094v8.8889c0 .9401.7692 1.7094 1.7094 1.7094h12.8205c.9402 0 1.7094-.7693 1.7094-1.7094v-8.8889c0-.9402-.7692-1.7094-1.7094-1.7094zm-1.7094 8.8889h-9.4017v-5.4701h9.4017z"/><path d="m48.2564 46.6666h-16.5128c-.9402 0-1.7094.7693-1.7094 1.7094 0 .9402.7692 1.7094 1.7094 1.7094h16.5128c.9402 0 1.7094-.7692 1.7094-1.7094 0-.9401-.7692-1.7094-1.7094-1.7094z"/><path d="m48.2564 41.3676h-16.5128c-.9402 0-1.7094.7692-1.7094 1.7094 0 .9401.7692 1.7094 1.7094 1.7094h16.5128c.9402 0 1.7094-.7693 1.7094-1.7094 0-.9402-.7692-1.7094-1.7094-1.7094z"/></g></svg>

<svg width="80" height="80" viewBox="0 0 80 80" fill="none" xmlns="http://www.w3.org/2000/svg">
<path d="M76.9402 32.0513L75.1966 30.2051L69.0769 13.7094C68.0342 10.9231 65.3675 9.07691 62.3932 9.05981H18.6838C15.7094 9.05981 13.0427 10.9231 12 13.7094L5.96581 30L3.45299 32.3248C1.26496 34.188 0 36.9231 0 39.7949V63.829C0.017094 67.7607 3.21368 70.9402 7.1453 70.9402H11.6581C15.5897 70.9402 18.7863 67.7607 18.8034 63.829V60.3419H61.1966V63.829C61.2137 67.7607 64.4103 70.9402 68.3419 70.9402H72.8547C76.7863 70.9402 79.9829 67.7607 80 63.829V39.1624C79.9829 36.4786 78.8889 33.9145 76.9402 32.0513ZM15.2137 14.8718C15.7607 13.4188 17.1453 12.4786 18.6838 12.4786H62.4103C63.9487 12.4786 65.3333 13.4359 65.8803 14.8718L71.2137 29.2308H67.2308C66.2906 22.8205 60.3248 18.3931 53.9145 19.3504C48.8034 20.1025 44.7863 24.1196 44.0342 29.2308H9.88034L15.2137 14.8718ZM63.7436 29.2308H47.4872C48.4273 24.735 52.8376 21.8632 57.3333 22.8034C60.547 23.4872 63.0598 26 63.7436 29.2308ZM15.3846 63.829C15.3675 65.8803 13.7094 67.5214 11.6581 67.5214H7.1453C5.09402 67.5214 3.4359 65.8803 3.4188 63.829V59.3504C4.44444 60.0171 5.79487 60.3419 7.1453 60.3419H15.3846V63.829ZM76.5812 63.829C76.5641 65.8803 74.906 67.5214 72.8547 67.5214H68.3419C66.2906 67.5214 64.6325 65.8632 64.6154 63.829V60.3419H72.8547C74.2051 60.3419 75.5556 60.0171 76.5812 59.3504V63.829ZM72.8547 56.9231H7.1453C5.11111 56.9402 3.4359 55.3162 3.4188 53.2649V39.7949C3.4188 37.9145 4.25641 36.1196 5.69231 34.906C5.7094 34.8889 5.74359 34.8547 5.76068 34.8376L8.08547 32.6496H72.8205L74.4615 34.4102C74.4786 34.4444 74.5299 34.4615 74.547 34.4957C75.8291 35.7094 76.5641 37.4017 76.5641 39.1624V53.2649H76.5812C76.5641 55.2991 74.8889 56.9402 72.8547 56.9231Z" fill="black"/>
<path d="M22.5641 39.4872H9.74358C8.80341 39.4872 8.03418 40.2564 8.03418 41.1966V50.0855C8.03418 51.0256 8.80341 51.7949 9.74358 51.7949H22.5641C23.5043 51.7949 24.2735 51.0256 24.2735 50.0855V41.1966C24.2735 40.2564 23.5043 39.4872 22.5641 39.4872ZM20.8547 48.3761H11.453V42.906H20.8547V48.3761Z" fill="black"/>
<path d="M70.2565 39.4872H57.436C56.4958 39.4872 55.7266 40.2564 55.7266 41.1966V50.0855C55.7266 51.0256 56.4958 51.7949 57.436 51.7949H70.2565C71.1967 51.7949 71.9659 51.0256 71.9659 50.0855V41.1966C71.9659 40.2564 71.1967 39.4872 70.2565 39.4872ZM68.5471 48.3761H59.1454V42.906H68.5471V48.3761Z" fill="black"/>
<path d="M48.2564 46.6666H31.7436C30.8034 46.6666 30.0342 47.4359 30.0342 48.376C30.0342 49.3162 30.8034 50.0854 31.7436 50.0854H48.2564C49.1966 50.0854 49.9658 49.3162 49.9658 48.376C49.9658 47.4359 49.1966 46.6666 48.2564 46.6666Z" fill="black"/>
<path d="M48.2564 41.3676H31.7436C30.8034 41.3676 30.0342 42.1368 30.0342 43.077C30.0342 44.0171 30.8034 44.7864 31.7436 44.7864H48.2564C49.1966 44.7864 49.9658 44.0171 49.9658 43.077C49.9658 42.1368 49.1966 41.3676 48.2564 41.3676Z" fill="black"/>
</svg>
